@themes/theme-alpha/src/img/icon-web.svg

<svg width="62" height="62" viewBox="0 0 62 62" fill="none" xmlns="http://www.w3.org/2000/svg">
<path fill-rule="evenodd" clip-rule="evenodd" d="M33.5 31L28.5 46L33.5 31Z" fill="#0471FF"/>
<path fill-rule="evenodd" clip-rule="evenodd" d="M59.9286 1H2.07143C1.47893 1 1 1.48 1 2.07143V59.9286C1 60.5211 1.47893 61 2.07143 61H59.9286C60.5211 61 61 60.5211 61 59.9286V2.07143C61 1.48 60.5211 1 59.9286 1ZM3.14286 58.8571H58.8571V3.14286H3.14286V58.8571Z" fill="#0471FF"/>
<path fill-rule="evenodd" clip-rule="evenodd" d="M2.07143 17.0714H59.9286H2.07143Z" fill="#0471FF"/>
<path fill-rule="evenodd" clip-rule="evenodd" d="M12.25 9.57143C12.25 10.7543 11.29 11.7143 10.1071 11.7143C8.92429 11.7143 7.96429 10.7543 7.96429 9.57143C7.96429 8.38857 8.92429 7.42857 10.1071 7.42857C11.29 7.42857 12.25 8.38857 12.25 9.57143Z" fill="#0471FF"/>
<path fill-rule="evenodd" clip-rule="evenodd" d="M18.6785 9.57143C18.6785 10.7543 17.7185 11.7143 16.5356 11.7143C15.3528 11.7143 14.3928 10.7543 14.3928 9.57143C14.3928 8.38858 15.3528 7.42858 16.5356 7.42858C17.7185 7.42858 18.6785 8.38858 18.6785 9.57143Z" fill="#0471FF"/>
<path fill-rule="evenodd" clip-rule="evenodd" d="M25.1072 9.57143C25.1072 10.7543 24.1472 11.7143 22.9643 11.7143C21.7815 11.7143 20.8215 10.7543 20.8215 9.57143C20.8215 8.38858 21.7815 7.42858 22.9643 7.42858C24.1472 7.42858 25.1072 8.38858 25.1072 9.57143Z" fill="#0471FF"/>
<path fill-rule="evenodd" clip-rule="evenodd" d="M0.5 2.07143C0.5 1.20418 1.20246 0.5 2.07143 0.5H59.9286C60.7975 0.5 61.5 1.20418 61.5 2.07143V59.9286C61.5 60.7972 60.7972 61.5 59.9286 61.5H2.07143C1.20279 61.5 0.5 60.7972 0.5 59.9286V2.07143ZM2.07143 1.5C1.7554 1.5 1.5 1.75582 1.5 2.07143V59.9286C1.5 60.2449 1.75507 60.5 2.07143 60.5H59.9286C60.2449 60.5 60.5 60.2449 60.5 59.9286V2.07143C60.5 1.75582 60.2446 1.5 59.9286 1.5H2.07143ZM2.64286 2.64286H59.3571V16.5714H59.9286C60.2047 16.5714 60.4286 16.7953 60.4286 17.0714C60.4286 17.3476 60.2047 17.5714 59.9286 17.5714H59.3571V59.3571H2.64286V17.5714H2.07143C1.79529 17.5714 1.57143 17.3476 1.57143 17.0714C1.57143 16.7953 1.79529 16.5714 2.07143 16.5714H2.64286V2.64286ZM3.64286 17.5714V58.3571H58.3571V17.5714H3.64286ZM58.3571 16.5714H3.64286V3.64286H58.3571V16.5714ZM10.1071 7.92857C9.20043 7.92857 8.46429 8.66471 8.46429 9.57143C8.46429 10.4781 9.20043 11.2143 10.1071 11.2143C11.0139 11.2143 11.75 10.4781 11.75 9.57143C11.75 8.66471 11.0139 7.92857 10.1071 7.92857ZM7.46429 9.57143C7.46429 8.11243 8.64814 6.92857 10.1071 6.92857C11.5661 6.92857 12.75 8.11243 12.75 9.57143C12.75 11.0304 11.5661 12.2143 10.1071 12.2143C8.64814 12.2143 7.46429 11.0304 7.46429 9.57143ZM16.5356 7.92858C15.6289 7.92858 14.8928 8.66472 14.8928 9.57143C14.8928 10.4781 15.6289 11.2143 16.5356 11.2143C17.4424 11.2143 18.1785 10.4781 18.1785 9.57143C18.1785 8.66472 17.4424 7.92858 16.5356 7.92858ZM13.8928 9.57143C13.8928 8.11243 15.0766 6.92858 16.5356 6.92858C17.9946 6.92858 19.1785 8.11243 19.1785 9.57143C19.1785 11.0304 17.9946 12.2143 16.5356 12.2143C15.0766 12.2143 13.8928 11.0304 13.8928 9.57143ZM22.9643 7.92858C22.0576 7.92858 21.3215 8.66472 21.3215 9.57143C21.3215 10.4781 22.0576 11.2143 22.9643 11.2143C23.871 11.2143 24.6072 10.4781 24.6072 9.57143C24.6072 8.66472 23.871 7.92858 22.9643 7.92858ZM20.3215 9.57143C20.3215 8.11243 21.5053 6.92858 22.9643 6.92858C24.4233 6.92858 25.6072 8.11243 25.6072 9.57143C25.6072 11.0304 24.4233 12.2143 22.9643 12.2143C21.5053 12.2143 20.3215 11.0304 20.3215 9.57143ZM33.6581 30.5257C33.9201 30.613 34.0617 30.8961 33.9743 31.1581L28.9743 46.1581C28.887 46.4201 28.6039 46.5617 28.3419 46.4743C28.0799 46.387 27.9383 46.1039 28.0257 45.8419L33.0257 30.8419C33.113 30.5799 33.3961 30.4383 33.6581 30.5257Z" fill="#0471FF"/>
<path fill-rule="evenodd" clip-rule="evenodd" d="M0.571777 17.0714C0.571777 16.243 1.24335 15.5714 2.07178 15.5714H59.9289C60.7573 15.5714 61.4289 16.243 61.4289 17.0714C61.4289 17.8999 60.7573 18.5714 59.9289 18.5714H2.07178C1.24335 18.5714 0.571777 17.8999 0.571777 17.0714Z" fill="#0471FF"/>
<path fill-rule="evenodd" clip-rule="evenodd" d="M37.2795 31.3781C37.761 30.704 38.6979 30.5479 39.372 31.0294L48.122 37.2794C48.5161 37.5609 48.7501 38.0155 48.7501 38.4999C48.7501 38.9843 48.5163 39.4389 48.1221 39.7205L39.3718 45.9707C38.6976 46.4521 37.7608 46.2959 37.2794 45.6217C36.798 44.9475 36.9542 44.0107 37.6284 43.5293L44.6697 38.5002L37.6283 33.4706C36.9541 32.9891 36.798 32.0523 37.2795 31.3781Z" fill="#0471FF"/>
<path fill-rule="evenodd" clip-rule="evenodd" d="M24.7206 31.3781C25.2021 32.0523 25.046 32.9891 24.3719 33.4706L17.3305 38.5002L24.3717 43.5293C25.0459 44.0107 25.2021 44.9475 24.7207 45.6217C24.2393 46.2959 23.3025 46.4521 22.6283 45.9707L13.878 39.7205C13.4839 39.4389 13.25 38.9843 13.25 38.4999C13.25 38.0155 13.484 37.5609 13.8781 37.2794L22.6281 31.0294C23.3023 30.5479 24.2391 30.704 24.7206 31.3781Z" fill="#0471FF"/>
<path fill-rule="evenodd" clip-rule="evenodd" d="M33.9743 29.577C34.7602 29.839 35.1849 30.6884 34.9229 31.4744L29.9229 46.4744C29.661 47.2603 28.8115 47.685 28.0256 47.423C27.2397 47.1611 26.8149 46.3116 27.0769 45.5257L32.0769 30.5257C32.3389 29.7398 33.1883 29.315 33.9743 29.577Z" fill="#0471FF"/>
</svg>

<svg width="62" height="62" xmlns="http://www.w3.org/2000/svg" fill="none" viewBox="0 0 62 62">
  <style type="text/css">
	.icon-web{fill: #110d47;}
</style>
  <defs/>
  <path fill-rule="evenodd" d="M33.5 31l-5 15 5-15z" class="icon-web" clip-rule="evenodd"/>
  <path  fill-rule="evenodd" d="M59.93 1H2.07C1.47 1 1 1.48 1 2.07v57.86c0 .6.48 1.07 1.07 1.07h57.86c.6 0 1.07-.48 1.07-1.07V2.07C61 1.48 60.52 1 59.93 1zM3.14 58.86h55.72V3.14H3.14v55.72zM2.07 17.07h57.86H2.07z" class="icon-web" clip-rule="evenodd"/>
  <path fill-rule="evenodd" d="M12.25 9.57a2.14 2.14 0 11-4.29 0 2.14 2.14 0 014.29 0zM18.68 9.57a2.14 2.14 0 11-4.29 0 2.14 2.14 0 014.29 0zM25.1 9.57a2.14 2.14 0 11-4.28 0 2.14 2.14 0 014.29 0z" class="icon-web" clip-rule="evenodd"/>
  <path  fill-rule="evenodd" d="M.5 2.07C.5 1.2 1.2.5 2.07.5h57.86c.87 0 1.57.7 1.57 1.57v57.86c0 .87-.7 1.57-1.57 1.57H2.07C1.2 61.5.5 60.8.5 59.93V2.07zm1.57-.57a.57.57 0 00-.57.57v57.86c0 .31.26.57.57.57h57.86c.31 0 .57-.26.57-.57V2.07a.57.57 0 00-.57-.57H2.07zm.57 1.14h56.72v13.93h.57a.5.5 0 010 1h-.57v41.79H2.64V17.57h-.57a.5.5 0 110-1h.57V2.64zm1 14.93v40.79h54.72V17.57H3.64zm54.72-1H3.64V3.64h54.72v12.93zM10.1 7.93a1.64 1.64 0 100 3.29 1.64 1.64 0 000-3.3zM7.46 9.57a2.64 2.64 0 115.3 0 2.64 2.64 0 01-5.3 0zm9.08-1.64a1.64 1.64 0 100 3.29 1.64 1.64 0 000-3.3zm-2.65 1.64a2.64 2.64 0 115.29 0 2.64 2.64 0 01-5.29 0zm9.07-1.64a1.64 1.64 0 100 3.29 1.64 1.64 0 000-3.3zm-2.64 1.64a2.64 2.64 0 115.29 0 2.64 2.64 0 01-5.29 0zm13.34 20.96c.26.08.4.37.31.63l-5 15a.5.5 0 11-.94-.32l5-15a.5.5 0 01.63-.31z" class="icon-web" clip-rule="evenodd"/>
  <path fill-rule="evenodd" d="M.57 17.07c0-.83.67-1.5 1.5-1.5h57.86a1.5 1.5 0 010 3H2.07a1.5 1.5 0 01-1.5-1.5zM37.28 31.38a1.5 1.5 0 012.1-.35l8.74 6.25a1.5 1.5 0 010 2.44l-8.75 6.25a1.5 1.5 0 11-1.74-2.44l7.04-5.03-7.04-5.03a1.5 1.5 0 01-.35-2.1zM24.72 31.38a1.5 1.5 0 01-.35 2.1l-7.04 5.02 7.04 5.03a1.5 1.5 0 11-1.74 2.44l-8.75-6.25a1.5 1.5 0 010-2.44l8.75-6.25a1.5 1.5 0 012.1.35zM33.97 29.58a1.5 1.5 0 01.95 1.9l-5 15a1.5 1.5 0 11-2.84-.95l5-15a1.5 1.5 0 011.9-.95z" class="icon-web" clip-rule="evenodd"/>
</svg>
